images_sukapura_svg/cmd/lc_spellonline.svg

<svg viewBox="0 0 24 24" xmlns="http://www.w3.org/2000/svg"><g fill="#4b4b4f"><path d="m5.7602179 8.8974294h-3.52288l-.716937 2.1013666h-1.5204009l3.3065629-8.9987949h1.421513l3.2694799 8.9987949h-1.5265814zm-3.0902456-1.2546397h2.6637917l-1.3040836-3.8442656h-.037083z"/><path d="m9.0420591 10.998796v-8.9987949h2.9913579q1.495679 0 2.336226.6180492.840546.6118686.840546 1.8356059 0 .6118686-.352288 1.0939469-.352288.4820784-.976517.716937.803464.1792343 1.236098.7725614.432634.5933272.432634 1.3782496 0 1.2670007-.828185 1.9283129-.828186.655132-2.286782.655132zm1.5018589-4.0914848v2.89247h1.891231q.778742 0 1.199015-.3522881.420274-.3584684.420274-1.032142 0-.716937-.352288-1.1124884-.352288-.3955515-1.100128-.3955515zm0-1.1186689h1.656372q.698396 0 1.100128-.327566.407912-.3337466.407912-.9394347 0-.6674931-.426454-.9888786-.426454-.3275661-1.248459-.3275661h-1.489499z"/><path d="m8.8912478 18.885031.012361.03708q.024722 1.365889-.8899907 2.224977-.9085323.852908-2.4660161.852908-1.5760253 0-2.5649039-1.056864-.9826981-1.063041-.9826981-2.713233v-1.711996q0-1.64401.9703372-2.707055.9765176-1.069225 2.5340014-1.069225 1.5945667 0 2.5092795.840547.9208932.834366.8961712 2.249699l-.012361.03708h-1.4524154q0-.908533-.4944393-1.415333-.4882589-.5068-1.446235-.5068-.9208932 0-1.4647764.729298-.5377028.729298-.5377028 1.829425v1.724357q0 1.112489.5500637 1.841787.5562443.729298 1.4956789.729298.9332542 0 1.4153325-.50062.4820784-.50062.4820784-1.415333z" transform="translate(14.989564 -10.871411)"/></g><path d="m22.008379 11.015652c-.11263-.02069-.229582-.02189-.349814.0022-.256226.05414-.492352.195183-.658476.393444l-7.352978 8.22655-2.633903-2.575268c-.440541-.430791-1.2421489-.430757-1.6827719 0-.440564.430768-.440599 1.214497 0 1.645311l3.5118709 3.433689.91455.858422.804804-.929957 8.194364-9.156507c.581205-.618654.04074-1.75309-.747646-1.897919z" fill="#32d74b"/><path d="m6.3320312 13-.3984374.435547-1.9277344 1.927734-1.9277344-1.927734a.58187636.58187636 0 1 0 -.8007812.800781l2.328125 2.328125.4003906.435547.4003906-.435547 1.9257812-1.927734 1.9277344 1.927734.099609.107422c.078991-.113867.1679811-.223017.2714844-.324219.3624751-.354358.8047597-.552781 1.2597656-.613281l1.0976564-1.097656 1.925781 1.927734.400391.435547.400391-.435547 1.927734-1.927734.597656.599609.75586-.845703-.955078-.955078-.398438-.435547-.40039.435547-1.927735 1.927734-1.927734-1.927734-.398438-.435547-.40039.435547-1.9277348 1.927734-1.9277343-1.927734z" fill="#d70015"/></svg>

<?xml version="1.0" encoding="UTF-8" standalone="no"?>
<svg
   xmlns:dc="http://purl.org/dc/elements/1.1/"
   xmlns:cc="http://creativecommons.org/ns#"
   xmlns:rdf="http://www.w3.org/1999/02/22-rdf-syntax-ns#"
   xmlns:svg="http://www.w3.org/2000/svg"
   xmlns="http://www.w3.org/2000/svg"
   xmlns:sodipodi="http://sodipodi.sourceforge.net/DTD/sodipodi-0.dtd"
   xmlns:inkscape="http://www.inkscape.org/namespaces/inkscape"
   viewBox="0 0 24 24"
   version="1.1"
   id="svg12"
   sodipodi:docname="lc_spellonline.svg"
   inkscape:export-filename="D:\Rizmut\libreoffice-style-sukapura-master\images_sukapura\cmd\lc_spellonline.png"
   inkscape:export-xdpi="96"
   inkscape:export-ydpi="96"
   inkscape:version="0.92.3 (2405546, 2018-03-11)">
  <metadata
     id="metadata18">
    <rdf:RDF>
      <cc:Work
         rdf:about="">
        <dc:format>image/svg+xml</dc:format>
        <dc:type
           rdf:resource="http://purl.org/dc/dcmitype/StillImage" />
        <dc:title></dc:title>
      </cc:Work>
    </rdf:RDF>
  </metadata>
  <defs
     id="defs16">
    <linearGradient
       gradientTransform="translate(-29.694915,1.220339)"
       id="a-6"
       gradientUnits="userSpaceOnUse"
       x1="14"
       x2="13.79661"
       y1="22"
       y2="2.1355929">
      <stop
         offset="0"
         stop-color="#0040dd"
         id="stop2" />
      <stop
         offset="1"
         stop-color="#0a84ff"
         id="stop4" />
    </linearGradient>
  </defs>
  <sodipodi:namedview
     pagecolor="#ffffff"
     bordercolor="#666666"
     borderopacity="1"
     objecttolerance="10"
     gridtolerance="10"
     guidetolerance="10"
     inkscape:pageopacity="0"
     inkscape:pageshadow="2"
     inkscape:window-width="1366"
     inkscape:window-height="716"
     id="namedview14"
     showgrid="true"
     inkscape:snap-global="true"
     inkscape:zoom="16"
     inkscape:cx="12.759264"
     inkscape:cy="13.28133"
     inkscape:window-x="-8"
     inkscape:window-y="-8"
     inkscape:window-maximized="1"
     inkscape:current-layer="svg12">
    <inkscape:grid
       type="xygrid"
       id="grid828" />
  </sodipodi:namedview>
  <path
     inkscape:connector-curvature="0"
     id="path846"
     style="font-style:normal;font-variant:normal;font-weight:500;font-stretch:normal;font-size:medium;line-height:1.25;font-family:Roboto;-inkscape-font-specification:'Roboto Medium';letter-spacing:0px;word-spacing:0px;fill:#4b4b4f;fill-opacity:1;stroke:none;stroke-width:0.31644115"
     d="m 5.7602179,8.8974294 h -3.52288 L 1.5204009,10.998796 H 0 L 3.3065629,2.0000011 h 1.421513 L 7.9975558,10.998796 H 6.4709744 Z M 2.6699723,7.6427897 H 5.333764 L 4.0296804,3.7985241 h -0.037083 z" />
  <path
     inkscape:connector-curvature="0"
     id="path848"
     style="font-style:normal;font-variant:normal;font-weight:500;font-stretch:normal;font-size:medium;line-height:1.25;font-family:Roboto;-inkscape-font-specification:'Roboto Medium';letter-spacing:0px;word-spacing:0px;fill:#4b4b4f;fill-opacity:1;stroke:none;stroke-width:0.31644115"
     d="M 9.0420591,10.998796 V 2.0000011 h 2.9913579 q 1.495679,0 2.336226,0.6180492 0.840546,0.6118686 0.840546,1.8356059 0,0.6118686 -0.352288,1.0939469 -0.352288,0.4820784 -0.976517,0.716937 0.803464,0.1792343 1.236098,0.7725614 0.432634,0.5933272 0.432634,1.3782496 0,1.2670007 -0.828185,1.9283129 -0.828186,0.655132 -2.286782,0.655132 z M 10.543918,6.9073112 v 2.89247 h 1.891231 q 0.778742,0 1.199015,-0.3522881 0.420274,-0.3584684 0.420274,-1.032142 0,-0.716937 -0.352288,-1.1124884 -0.352288,-0.3955515 -1.100128,-0.3955515 z m 0,-1.1186689 h 1.656372 q 0.698396,0 1.100128,-0.327566 0.407912,-0.3337466 0.407912,-0.9394347 0,-0.6674931 -0.426454,-0.9888786 -0.426454,-0.3275661 -1.248459,-0.3275661 h -1.489499 z" />
  <g
     aria-label="C"
     style="font-style:normal;font-weight:normal;font-size:12.65764618px;line-height:1.25;font-family:sans-serif;letter-spacing:0px;word-spacing:0px;fill:#4b4b4f;fill-opacity:1;stroke:none;stroke-width:0.31644115"
     id="text841"
     transform="translate(14.989564,-10.871411)">
    <path
       d="m 8.8912478,18.885031 0.012361,0.03708 q 0.024722,1.365889 -0.8899907,2.224977 -0.9085323,0.852908 -2.4660161,0.852908 -1.5760253,0 -2.5649039,-1.056864 Q 2,19.880091 2,18.229899 v -1.711996 q 0,-1.64401 0.9703372,-2.707055 0.9765176,-1.069225 2.5340014,-1.069225 1.5945667,0 2.5092795,0.840547 0.9208932,0.834366 0.8961712,2.249699 l -0.012361,0.03708 H 7.4450129 q 0,-0.908533 -0.4944393,-1.415333 -0.4882589,-0.5068 -1.446235,-0.5068 -0.9208932,0 -1.4647764,0.729298 -0.5377028,0.729298 -0.5377028,1.829425 v 1.724357 q 0,1.112489 0.5500637,1.841787 0.5562443,0.729298 1.4956789,0.729298 0.9332542,0 1.4153325,-0.50062 0.4820784,-0.50062 0.4820784,-1.415333 z"
       style="font-style:normal;font-variant:normal;font-weight:500;font-stretch:normal;font-family:Roboto;-inkscape-font-specification:'Roboto Medium';fill:#4b4b4f;fill-opacity:1;stroke-width:0.31644115"
       id="path843"
       inkscape:connector-curvature="0" />
  </g>
  <path
     inkscape:connector-curvature="0"
     style="fill:#32d74b"
     d="m 22.008379,11.015652 c -0.11263,-0.02069 -0.229582,-0.02189 -0.349814,0.0022 -0.256226,0.05414 -0.492352,0.195183 -0.658476,0.393444 l -7.352978,8.22655 -2.633903,-2.575268 c -0.440541,-0.430791 -1.2421489,-0.430757 -1.6827719,0 -0.440564,0.430768 -0.440599,1.214497 0,1.645311 L 12.842307,22.141578 13.756857,23 l 0.804804,-0.929957 8.194364,-9.156507 c 0.581205,-0.618654 0.04074,-1.75309 -0.747646,-1.897919 z"
     id="path1410" />
  <path
     inkscape:connector-curvature="0"
     style="fill:#d70015"
     d="M 6.3320312,13 5.9335938,13.435547 4.0058594,15.363281 2.078125,13.435547 A 0.58187636,0.58187636 0 1 0 1.2773438,14.236328 L 3.6054688,16.564453 4.0058594,17 4.40625,16.564453 l 1.9257812,-1.927734 1.9277344,1.927734 0.099609,0.107422 C 8.4383656,16.558008 8.5273557,16.448858 8.630859,16.347656 8.9933341,15.993298 9.4356187,15.794875 9.8906246,15.734375 L 10.988281,14.636719 12.914062,16.564453 13.314453,17 l 0.400391,-0.435547 1.927734,-1.927734 0.597656,0.599609 0.75586,-0.845703 L 16.041016,13.435547 15.642578,13 15.242188,13.435547 13.314453,15.363281 11.386719,13.435547 10.988281,13 10.587891,13.435547 8.6601562,15.363281 6.7324219,13.435547 Z"
     id="path1412" />
</svg>
